X:1
T:The New Glory Song
T:The New Glory Song
T:Clarence Board Strouse
T:Clarence Board Strouse, 1911
T:Public Domain Courtesy of the Cyber Hymnal™
T:Public Domain Courtesy of the Cyber Hymnal™
C:Clarence Board Strouse
Z:Public Domain
Z:Courtesy of the Cyber Hymnal™
%%score ( 1 2 ) ( 3 4 )
L:1/8
Q:1/4=92
M:4/4
K:Ab
V:1 treble 
V:2 treble 
V:3 bass 
V:4 bass 
V:1
 [CE]>[CE] [DF]>[EG] [CA] [Ec]2 [EA] | [FB]>[FA] [EG]>[DF] [CE]4 | %2
w: 1.~If you are dis- cour- aged, In|dark- ness or in doubt,|
w: 2.~Do you long for com- fort This|world has ne- ver brought?|
w: 3.~When you’re sore- ly tempt- ed Be-|cause of some de- feat;|
w: 4.~When life’s joys and sor- rows, Its|hopes and fears are o’er,|
 [CE]>[CE] [DF]>[DG] [CA] [Ec]2 [EA] | [EB]>[EB] [=DB]>[Dc] B4 | %4
w: If you are down- heart- ed, The|Lord can bring you out;|
w: Do you car- ry bur- dens Your|ma- ny sins have wrought?|
w: When you have fore- bod- ings, Of|tri- als you’re to meet,|
w: When with those we’ve la- bored, We|reach the gold- en shore,|
 [CE]>[CE] [CF]>[CG] [CA] [Ec]2 [EA] | [FB]>[FA] [EG]>[DF] [CE]4 | %6
w: Don’t give o’er the bat- tle, The|vic- tory you can win,|
w: Take it all to Je- sus; Your|friend He’s al- ways been,|
w: Trust and do not wor- ry, Thy|faith will sure- ly win,|
w: We’ll re- joice for- ev- er, For|vic- tory o- ver sin,|
 (3[Ee][Ee][Ee] [Ed]>[Ec] [FB]<[DF] [EG]>[FA] | [Ec]>[Ec] !fermata![Ec]>[DB] [CA]4 || %8
w: O- pen your heart to Hea- ven, And the|glo- ry will come in.|
w: O- pen your heart to Hea- ven, And the|glo- ry will come in.|
w: O- pen your heart to Hea- ven, And the|glo- ry will come in.|
w: O- pen your heart to Hea- ven, And the|glo- ry will come in.|
"^Refrain" (3[Ec][Ec][Ec] [Ec]>[Ec] [Ec]<[CA] [CG]>[CF] | [Ed]>[Ed] [Ed]>[Gd] [Gd]4 | %10
w: ||
w: ||
w: ||
w: ||
 (3[Gd][Gd][Gd] [Gd]>[Gd] [Gd]<[EB] [EG]>E | [Ec]>[=D=B] [Ec]>[DB] [Ec]3 [Ee] | %12
w: ||
w: ||
w: ||
w: ||
 [Ee][Ec][EB][_GA] [FA] [FA]2 [FA] | [EA][EA][EB][_Gc] [Fd]4 | %14
w: ||
w: ||
w: ||
w: ||
 (3[Ed][Ed][Ed] [Ec]>[EB] [Ee]<!fermata![Ee] [FA]>[FB] | [Ec]!fermata![Ee] [Ec]>[DB] [CA]3 |] %16
w: ||
w: ||
w: ||
w: ||
V:2
 x8 | x8 | x8 | x4 (E2 _D2) | x8 | x8 | x8 | x8 || x8 | x8 | x15/2 E/ | x8 | x8 | x8 | x8 | x7 |] %16
V:3
 [A,,A,]>[A,,A,] [A,,A,]>[A,,E,] [A,,E,] [A,,A,]2 [C,A,] | [D,D]>[D,D] [D,D]>[D,A,] [A,,A,]4 | %2
w: ||
 [A,,A,]>[A,,A,] [A,,A,]>[A,,E,] [A,,E,] [A,,A,]2 [A,C] | [G,B,]>[G,B,] [F,A,]>[B,,A,] [E,G,]4 | %4
w: ||
 [A,,A,]>[A,,A,] [A,,A,]>[A,,E,] [A,,E,] [A,,A,]2 [C,A,] | [D,D]>[D,D] [D,D]>[D,A,] [A,,A,]4 | %6
w: ||
 (3[A,C][A,C][A,C] [G,B,]>A, [D,D]<[D,A,] [D,A,]>[D,A,] | %7
w: * * * * O- * * * *|
 [D,A,]>[D,A,] !fermata![E,G,]>[E,G,] [A,,A,]4 || %8
w: |
 (3[A,,A,][A,,A,][A,,A,] [A,,A,]>[A,,A,] [A,,A,]<[A,,E,] [A,,E,]>[A,,A,] | %9
w: pen your heart to Hea- ven, And the glo-|
 [B,,G,]>[E,G,] [G,B,]>B, [E,B,]4 | %10
w: ry will come in; O-|
 (3[E,B,][E,B,][E,B,] [E,B,]>[E,B,] [E,B,]<[E,G,] [E,B,]>[E,G,] | %11
w: pen your heart to Hea- ven, And the glo-|
 [A,,A,]>[A,,A,] [A,,A,]>[A,,A,] [A,,A,]3 [A,C] | [A,C][A,,A,][B,,G,][C,A,] [D,A,] [D,A,]2 [D,A,] | %13
w: ry will come in; Tell Je-|sus all your tri- als, He’ll save|
 [C,A,][C,A,][E,G,]A, [D,A,]4 | %14
w: you from your sin; O-|
 (3[E,G,][E,G,][E,B,] [E,A,]>[D,G,] [C,A,]<!fermata![C,A,] [D,A,]>[D,A,] | %15
w: pen your heart to Hea- ven, And the glo-|
 [E,A,]!fermata![E,C] [E,A,]>[E,G,] [A,,A,]3 |] %16
w: ry will come in. *|
V:4
 x8 | x8 | x8 | x8 | x8 | x8 | x7/2 A,/ x4 | x8 || x8 | x7/2 B,/ x4 | x8 | x8 | x8 | x3 A, x4 | %14
 x8 | x7 |] %16

